svg/fluentui-system-icons/ic_fluent_image_arrow_back_20_filled.svg

<svg width="20" height="20" viewBox="0 0 20 20" fill="none" xmlns="http://www.w3.org/2000/svg">
<path d="M5.5 10C7.98528 10 10 7.98528 10 5.5C10 3.01472 7.98528 1 5.5 1C3.01472 1 1 3.01472 1 5.5C1 7.98528 3.01472 10 5.5 10ZM4.60355 3.60355L3.70711 4.5H5.25C6.76878 4.5 8 5.73122 8 7.25V7.5C8 7.77614 7.77614 8 7.5 8C7.22386 8 7 7.77614 7 7.5V7.25C7 6.2835 6.2165 5.5 5.25 5.5H3.70711L4.60355 6.39645C4.79882 6.59171 4.79882 6.90829 4.60355 7.10355C4.40829 7.29882 4.09171 7.29882 3.89645 7.10355L2.14433 5.35143C2.09744 5.30398 2.06198 5.24949 2.03794 5.19139C2.01349 5.13244 2 5.06779 2 5C2 4.93221 2.01349 4.86756 2.03794 4.80861C2.06234 4.74964 2.09851 4.69439 2.14645 4.64645L3.89645 2.89645C4.09171 2.70118 4.40829 2.70118 4.60355 2.89645C4.79882 3.09171 4.79882 3.40829 4.60355 3.60355ZM11 5.5C11 8.53757 8.53757 11 5.5 11C4.59978 11 3.75007 10.7837 3 10.4003V14C3 14.6495 3.20642 15.2509 3.55724 15.7419L8.94759 10.4345C9.53144 9.85964 10.4686 9.85964 11.0524 10.4345L16.4428 15.7419C16.7936 15.2509 17 14.6495 17 14V6C17 4.34315 15.6569 3 14 3H10.4003C10.7837 3.75007 11 4.59978 11 5.5ZM12.5 8C12.7761 8 13 7.77614 13 7.5C13 7.22386 12.7761 7 12.5 7C12.2239 7 12 7.22386 12 7.5C12 7.77614 12.2239 8 12.5 8ZM12.5 9C11.6716 9 11 8.32843 11 7.5C11 6.67157 11.6716 6 12.5 6C13.3284 6 14 6.67157 14 7.5C14 8.32843 13.3284 9 12.5 9ZM4.26544 16.448C4.75517 16.7956 5.35372 17 6 17H14C14.6463 17 15.2448 16.7956 15.7346 16.448L10.3508 11.1471C10.1562 10.9555 9.84381 10.9555 9.6492 11.1471L4.26544 16.448Z" fill="#212121"/>
</svg>

<svg xmlns="http://www.w3.org/2000/svg" width="20" height="20"><path d="M5.5 10a4.5 4.5 0 1 0 0-9 4.5 4.5 0 0 0 0 9Zm-.896-6.396-.897.896H5.25A2.75 2.75 0 0 1 8 7.25v.25a.5.5 0 0 1-1 0v-.25A1.75 1.75 0 0 0 5.25 5.5H3.707l.897.896a.5.5 0 1 1-.708.708L2.144 5.35a.498.498 0 0 1 .002-.705l1.75-1.75a.5.5 0 1 1 .708.708ZM11 5.5a5.5 5.5 0 0 1-8 4.9V14c0 .65.206 1.25.557 1.742l5.39-5.308a1.5 1.5 0 0 1 2.105 0l5.39 5.308A2.975 2.975 0 0 0 17 14V6a3 3 0 0 0-3-3h-3.6c.384.75.6 1.6.6 2.5ZM12.5 8a.5.5 0 1 0 0-1 .5.5 0 0 0 0 1Zm0 1a1.5 1.5 0 1 1 0-3 1.5 1.5 0 0 1 0 3Zm-8.235 7.448C4.755 16.796 5.354 17 6 17h8c.646 0 1.245-.204 1.735-.552l-5.384-5.3a.5.5 0 0 0-.702 0l-5.384 5.3Z"/></svg>
